
/*

backslashes???


Wed, Jun 18 2014, 14:51 EEST

*/


format("% Pdef(\defname, Pbind(\\\type, \\\\chuckInstrument, \\instrument, ", 123);

format("Pdef(\defname, Pbind(\\\type, \\\\chuckInstrument, \\instrument, ");

format("Pdef( \defname, Pbind( \\\ type, \\\\chuckInstrument, \\instrument, ");
			