/*
FFT filter functions: 

PVMagAbove
PVMagBelow
PVAdd
PVScramble etc.

IZ Wed, Mar 26 2014, 17:28 EET
*/

/*
SynthTemplates([
pvadd: { Inp.ar.... },
pvmagabove: { Inp.ar ... },
pvmagbelow: { Inp.r ... },
...
])

*/

